X:502
T:Kiss the cold winter away Roose.0502
M:6/8
L:1/8
Q:1/4=100
B:J.Roose MS, Manchester 1850
Z:Village Music Project. Ruairidh Greig.2019
K:F
c>dc {d/}c>BA|dBd d>fe|f2cd2B|cAFF3|
c>dc {d/}c>BA|dBd d>fe|f2cc2B|cAFF2c|
c2GA2F|c2zz2G|A2B c>BA|AF2z2c|
c2G A>GF|c2zz2e|f2F G>AB|AF2z2c|
c2GA2F|c2zz2G|A2B c>BA|AG2z2c|
c2G A>GF|c2zz2e|f2F G>AB|AF2z2c|
d2Bf2c|d2Bf2c|d>fe d>c=B|c2zz2c|
dBd cAc|BGB ABc|d>ef c>fe|f3f3z|
f>FB A>BG|f3f2z|f>FB A>Gc|F3F3|]

